X: 2 % start of header
T:Torus:Taurus Tune
T:20 of 100,000,000,000,000
C: (Sid.)
O: Jeff Minter
R:Procedurally Generated
L: 1/8
K: D % scale: C major
V:1 name="Voice 1"
^D,16    |     |     |     | C,16    |     |     |     | ^D,16    |     |     |     | C,16    |     |     |     | :|
V:2 name="Voice 2"
^F,4    | ^D,4    | ^F,4    | ^D,4    | ^D,4    | C,4    | ^D,4    | C,4    | ^F,4    | ^D,4    | ^F,4    | ^D,4    | ^D,4    | C,4    | ^D,4    | C,4    | :|
V:3 name="Voice 3"
A,1^F,1A,1^F,1|^F,1^D,1^F,1^D,1|A,1^F,1A,1^F,1|^F,1^D,1^F,1^D,1|^F,1^D,1^F,1^D,1|^D,1C,1^D,1C,1|^F,1^D,1^F,1^D,1|^D,1C,1^D,1C,1|A,1^F,1A,1^F,1|^F,1^D,1^F,1^D,1|A,1^F,1A,1^F,1|^F,1^D,1^F,1^D,1|^F,1^D,1^F,1^D,1|^D,1C,1^D,1C,1|^F,1^D,1^F,1^D,1|^D,1C,1^D,1C,1|:|
